src/objects/phone/1F4F1.svg

<svg id="emoji" viewBox="0 0 72 72" xmlns="http://www.w3.org/2000/svg">
  <g id="grid">
    <path fill="#b3b3b3" d="M68,4V68H4V4H68m4-4H0V72H72V0Z"/>
    <path fill="none" stroke="#00a5ff" stroke-miterlimit="10" stroke-width="0.1" d="M12.923,10.9583H59.0769A1.9231,1.9231,0,0,1,61,12.8814V59.0352a1.9231,1.9231,0,0,1-1.9231,1.9231H12.9231A1.9231,1.9231,0,0,1,11,59.0352V12.8813A1.923,1.923,0,0,1,12.923,10.9583Z"/>
    <rect x="16" y="4" rx="2.2537" width="40" height="64" fill="none" stroke="#00a5ff" stroke-miterlimit="10" stroke-width="0.1"/>
    <rect x="16" y="4" rx="2.2537" width="40" height="64" transform="translate(72) rotate(90)" fill="none" stroke="#00a5ff" stroke-miterlimit="10" stroke-width="0.1"/>
    <circle cx="36" cy="36" r="29" fill="none" stroke="#00a5ff" stroke-miterlimit="10" stroke-width="0.1"/>
  </g>
  <g id="color">
    <path fill="#9B9B9A" stroke="none" stroke-linecap="round" stroke-linejoin="round" stroke-miterlimit="10" stroke-width="2" d="M52.5,64.7644h-33c-0.5523,0-1-0.4477-1-1v-56c0-0.5523,0.4477-1,1-1h33c0.5523,0,1,0.4477,1,1v56 C53.5,64.3167,53.0523,64.7644,52.5,64.7644z"/>
    <path fill="#D0CFCE" stroke="none" stroke-linecap="round" stroke-linejoin="round" stroke-miterlimit="10" stroke-width="2" d="M48.0339,55H23.9661C23.4325,55,23,54.5675,23,54.0339V13.9661C23,13.4325,23.4325,13,23.9661,13h24.0678 C48.5675,13,49,13.4325,49,13.9661v40.0678C49,54.5675,48.5675,55,48.0339,55z"/>
    <polygon fill="#FFFFFF" stroke="none" stroke-linecap="round" stroke-linejoin="round" stroke-miterlimit="10" stroke-width="2" points="31,10 41,10 41,10 31,10"/>
  </g>
  <g id="hair"/>
  <g id="skin"/>
  <g id="skin-shadow"/>
  <g id="line">
    <path fill="none" stroke="#000000" stroke-linecap="round" stroke-linejoin="round" stroke-miterlimit="10" stroke-width="2" d="M52.5,64.7644h-33c-0.5523,0-1-0.4477-1-1v-56c0-0.5523,0.4477-1,1-1h33c0.5523,0,1,0.4477,1,1v56 C53.5,64.3167,53.0523,64.7644,52.5,64.7644z"/>
    <path fill="none" stroke="#000000" stroke-linecap="round" stroke-linejoin="round" stroke-miterlimit="10" stroke-width="2" d="M48.0339,55H23.9661C23.4325,55,23,54.5675,23,54.0339V13.9661C23,13.4325,23.4325,13,23.9661,13h24.0678 C48.5675,13,49,13.4325,49,13.9661v40.0678C49,54.5675,48.5675,55,48.0339,55z"/>
    <circle cx="36" cy="60" r="2" fill="#000000" stroke="#000000" stroke-miterlimit="10"/>
    <polygon fill="none" stroke="#000000" stroke-linecap="round" stroke-linejoin="round" stroke-miterlimit="10" stroke-width="2" points="31,10 41,10 41,10 31,10"/>
  </g>
</svg>

<svg viewBox="0 0 72 72" xmlns="http://www.w3.org/2000/svg"><path fill="#b3b3b3" d="M68 4v64H4V4h64m4-4H0v72h72V0z"/><path fill="none" stroke="#00a5ff" stroke-miterlimit="10" stroke-width=".1" d="M12.923 10.958h46.154A1.923 1.923 0 0161 12.881v46.154a1.923 1.923 0 01-1.923 1.923H12.923A1.923 1.923 0 0111 59.035V12.881a1.923 1.923 0 011.923-1.923z"/><rect x="16" y="4" rx="2.254" width="40" height="64" fill="none" stroke="#00a5ff" stroke-miterlimit="10" stroke-width=".1"/><rect x="16" y="4" rx="2.254" width="40" height="64" transform="rotate(90 36 36)" fill="none" stroke="#00a5ff" stroke-miterlimit="10" stroke-width=".1"/><circle cx="36" cy="36" r="29" fill="none" stroke="#00a5ff" stroke-miterlimit="10" stroke-width=".1"/><g stroke-linecap="round" stroke-miterlimit="10" stroke-width="6" stroke="#fff" fill="none" stroke-linejoin="round"><path d="M52.5 64.764h-33a1 1 0 01-1-1v-56a1 1 0 011-1h33a1 1 0 011 1v56a1 1 0 01-1 1z"/><path d="M48.034 55H23.966a.966.966 0 01-.966-.966V13.966c0-.534.433-.966.966-.966h24.068c.534 0 .966.432.966.966v40.068a.966.966 0 01-.966.966z"/><circle cx="36" cy="60" r="2"/><path d="M31 10h10-10z"/></g><path fill="#9B9B9A" d="M52.5 64.764h-33a1 1 0 01-1-1v-56a1 1 0 011-1h33a1 1 0 011 1v56a1 1 0 01-1 1z"/><path fill="#D0CFCE" d="M48.034 55H23.966a.966.966 0 01-.966-.966V13.966c0-.534.433-.966.966-.966h24.068c.534 0 .966.432.966.966v40.068a.966.966 0 01-.966.966z"/><path fill="#FFF" d="M31 10h10-10z"/><g stroke="#000" stroke-miterlimit="10"><path fill="none" stroke-linecap="round" stroke-linejoin="round" stroke-width="2" d="M52.5 64.764h-33a1 1 0 01-1-1v-56a1 1 0 011-1h33a1 1 0 011 1v56a1 1 0 01-1 1z"/><path fill="none" stroke-linecap="round" stroke-linejoin="round" stroke-width="2" d="M48.034 55H23.966a.966.966 0 01-.966-.966V13.966c0-.534.433-.966.966-.966h24.068c.534 0 .966.432.966.966v40.068a.966.966 0 01-.966.966z"/><circle cx="36" cy="60" r="2"/><path fill="none" stroke-linecap="round" stroke-linejoin="round" stroke-width="2" d="M31 10h10-10z"/></g></svg>
